X: 158
T: REEL: Toss the Feathers (Edor)
C: C: Trad.; S: Various
C: Set Leaders: Andrey, Anton, Mars
Z: Anton Zille ed., Oleg Naumov arr.; Benjamin Glauser at The Session
N: https://thesession.org/members/26966/sets/96716
R: Reel
M: 4/4
L: 1/8
Q: 1/2=100
K: Edor
"Em"EB~B2 dB~B2|"Em"EBBA "D"FEFA|"Em"BE~E2 B2 AB|"D"defe "Bm"dBAF|
"Em"EB~B2 dB~B2|"Em"EBBA "D"FEFA|"C"BE~E2 B2 AB| "Am"defe "D"dB A2||
"Em"Beed e2 de|"D"fede fe e2|"Em"febe febe|"D/B"fede feed|
"Em"Beed e2 de|"D"fede faaf|"G"b2 bf "D"a2 af|"C"egfe "D"dBAF||

